X: 31813
T: Patsy Hanly's
R: reel
M: 4/4
K: Gmajor
ge|edBA G2 GB|AD (3FED ADFD|dBcA GABd|efaf g2ge|
edBA G2 GB|AD (3FED AD (3FED|dBcA GABd|efaf g3 g|
g2 bg~g2 bg|a2 fd Adfd|dggf g2 bg|afdf a3 f|
g2 bg ~g2 (3bag|fada fadB|c2 cA B3 c|defd g2|

